X:1
T:Title
%%score 1 2
L:1/8
Q:1/4=90
M:4/4
K:G
V:1 treble nm="Strings 1, Soprano"
V:2 bass nm="Strings 1, Bass"
V:1
 z4 z2 [DG][DA] | [GB]2 [DG]2 [CE]2 [CG]2 | [CE]2 [B,D]4 [DG][DB] | [Gd]2 [Ge]2 [Gd]2 [GB]2 | %4
w: 1.~Man y~|souls~ to day~ are~|bur dened~ With~ a~|load~ of~ toil~ and~|
 [FA]6 [B,D][CE] | [DG]2 [DB]2 [DA]2 [DG]2 | [Ec]2 [CE]4 [EG][EA] | [DB]2 [DG]2 [FA]2 [DF]2 | %8
w: care,~ Bur dened~|down~ with~ grief~ and~|sor row,~ Which~ seem~|more~ than~ they~ could~|
 [DG]6 [GB][EA] | [DG]2 [B,D]2 [CE]2 [CG]2 | [CE]2 [B,D]4 [DG][DA] | [GB]2 [Ge]2 [Gd]2 [GB]2 | %12
w: bear.~ * *||||
 [FA]6 [B,D][CE] | [DG]2 [DB]2 [DA]2 [DG]2 | [Ec]2 [CE]4 [EG][EA] | [DB]2 [DG]2 [DF]2 [DA]2 | %16
w: ||||
 [DG]6 z2 |] %17
w: |
V:2
 z4 z2 [G,B,][G,C] | [G,D]2 [G,B,]2 [C,G,]2 [C,E,]2 | [G,,G,]2 [G,,G,]4 [G,B,]G, | %3
 [G,B,]2 [G,C]2 [G,B,]2 [G,D]2 | [D,D]6 [G,,G,][G,,G,] | [G,,B,]2 [G,,G,]2 [A,,F,]2 [B,,G,]2 | %6
 [C,G,]2 [C,G,]4 [C,G,][C,G,] | [D,G,]2 [D,B,]2 [D,C]2 [D,A,]2 | [G,,B,]6 [G,D][G,C] | %9
 [G,B,]2 G,2 [C,G,]2 [C,E,]2 | [G,,G,]2 [G,,G,]4 [G,B,][G,C] | [G,D]2 [G,C]2 [G,B,]2 [G,D]2 | %12
 [D,D]6 [G,,G,][G,,G,] | [G,,B,]2 [G,,G,]2 [A,,F,]2 [B,,G,]2 | [C,G,]2 [C,G,]4 [C,G,][C,G,] | %15
 [D,G,]2 [D,B,]2 [D,A,]2 [D,C]2 | [G,,B,]6 z2 |] %17

